img/monako-visit-logo.svg

<svg width="105" height="32" viewBox="0 0 105 32" fill="none" xmlns="http://www.w3.org/2000/svg">
<g clip-path="url(#clip0)">
<path fill-rule="evenodd" clip-rule="evenodd" d="M10.4318 6.57875C10.5406 6.34821 10.7116 6.16377 10.6805 5.81026C10.3074 5.74878 9.39016 5.3338 9.37461 6.01007C9.71663 6.22525 9.85655 6.64023 10.4318 6.57875ZM23.1642 5.87174C23.3352 5.6873 23.4285 5.42602 23.4441 5.10325C23.102 5.01103 22.0293 4.68826 22.1382 5.27232C22.1693 5.48749 22.8222 5.93322 23.1642 5.87174ZM35.0727 2.98221C33.6735 2.61334 31.637 2.76703 30.0823 2.70555C30.2067 1.78336 30.6576 1.1532 30.9063 0.3386C30.6265 0.123422 30.3155 -0.122495 29.8647 0.0312034C29.2895 0.922654 28.8231 1.84484 28.3412 2.75166C27.9369 2.81314 27.4861 2.81314 27.0664 2.85925C25.9159 2.98221 24.9676 3.32035 23.9726 3.61238C23.8172 3.65848 23.6617 3.70459 23.4751 3.67385C24.0037 4.82659 25.9626 4.61141 27.4395 4.33476C27.2218 4.719 27.3151 5.08788 27.0042 5.39528C26.8953 6.39431 26.5378 7.19355 26.3979 8.00815C26.5222 7.67001 26.7865 7.28577 26.9731 7.10133C26.8487 7.42409 26.7865 7.79297 26.7088 8.16185C26.429 8.30017 26.2424 8.53072 25.9159 8.62294C25.1852 9.26847 24.2991 9.69883 23.4751 10.2675C23.0243 10.5749 22.5424 10.8362 21.9672 10.8669C21.8894 10.5134 22.1537 10.2214 22.247 9.89864C22.2781 9.77568 22.247 9.62198 22.2936 9.49902C22.3558 9.32995 22.4802 9.207 22.5268 9.06867C22.6978 8.48461 22.6978 7.7776 22.9932 7.34724C22.7134 7.05522 22.1848 6.84004 21.6562 7.02448C21.2987 7.50094 21.1587 8.16185 20.9255 8.76127C20.0083 9.28384 18.889 9.63735 17.723 9.94475C17.5209 9.32995 16.4482 9.28384 16.4171 8.57683C16.4016 8.06963 17.381 7.6239 17.7385 7.33188C18.0339 7.07059 18.2827 6.99374 18.2205 6.62486C17.6764 6.40968 17.3188 5.9947 16.6348 6.02544C16.4637 6.48653 15.8885 6.57875 15.8419 7.14744C15.7642 7.14744 15.7331 7.08596 15.6709 7.16281C15.3755 7.68538 14.8625 8.16185 14.3961 8.63831C13.8986 8.79201 13.6188 9.13015 13.1835 9.32995C12.4372 9.97549 11.5666 10.3905 10.7427 10.9284C10.2763 11.2358 9.79436 11.5432 9.2036 11.5739C9.12587 11.2358 9.42125 10.913 9.51453 10.5442C9.54562 10.4366 9.49898 10.3136 9.53008 10.2214C9.59226 10.0523 9.71663 9.91401 9.76327 9.74494C9.8721 9.37606 9.85655 8.93034 9.99647 8.56146C10.0431 8.40776 10.2608 8.26943 10.2297 8.085C10.183 7.79297 9.26579 7.53168 8.89268 7.73149C8.53511 8.26943 8.33301 8.94571 8.14645 9.63735C7.43132 10.0984 6.06324 10.6671 5.13046 10.206C5.09937 9.91401 5.16155 9.69883 5.11492 9.39143C4.85063 9.31458 4.61743 9.03793 4.3376 9.06867C4.1044 9.09941 4.05776 9.4068 3.79348 9.42217C3.59137 10.0062 3.21826 10.4366 2.8607 10.8823C2.78296 11.1897 2.58086 11.451 2.40985 11.6969C2.23884 11.9275 2.06783 12.2349 1.788 12.3886C1.85018 11.7584 1.94346 11.0667 2.03674 10.3597C2.17666 9.26847 2.53422 8.00815 1.97455 7.10133C1.29051 6.60949 0.124539 7.03985 0.00016807 7.79297C-0.0620173 8.11574 0.0778998 8.60757 0.0934461 8.93034C0.108992 9.34532 0.108992 9.83716 0.108992 10.329C0.108992 11.0053 -0.0620173 11.7123 -0.0153783 12.2656C0.0157144 12.6959 0.202271 13.4798 0.388827 13.6796C0.497651 13.8026 1.19724 14.11 1.36825 14.11C1.57035 14.1253 1.77245 13.9409 1.95901 14.0485C2.58086 13.5413 2.89179 12.7728 3.40482 12.1734C3.87121 11.9121 4.11995 11.4664 4.46197 11.0975C5.02164 11.4356 6.07879 11.2512 6.63846 11.1436C6.74728 11.1129 6.90274 11.1436 6.99602 11.1282C7.44687 11.0053 7.71115 10.6825 7.9599 10.5595C7.91326 11.0975 7.9599 11.6047 8.27082 11.9121C8.5662 12.2195 9.37461 12.4808 9.91874 12.4654C10.4473 12.45 10.8826 12.158 11.3179 12.035C12.7637 10.9745 14.1318 9.85253 15.4532 8.66905C15.7175 9.34532 16.2306 9.72957 16.6658 10.2368C16.0129 10.6518 15.2045 11.159 14.707 11.7891C14.5515 11.9889 14.1318 12.3578 14.194 12.6652C14.2562 12.9111 15.0335 13.2954 15.36 13.3107C15.6864 13.3415 16.0751 13.2185 16.4327 13.0495C17.1011 12.7421 17.9096 12.2041 18.1738 11.6508C18.2827 11.4203 18.2982 11.0975 18.2982 10.8362C19.0444 10.3905 20.1482 10.0831 20.7701 9.62198C20.6613 10.1907 20.6924 10.7901 20.9877 11.1436C21.2831 11.4971 22.1537 11.7891 22.7445 11.7584C23.273 11.7276 23.6773 11.4356 24.1125 11.328C24.2058 11.2666 24.268 11.159 24.3613 11.0821C25.1075 10.5134 25.947 9.97549 26.5689 9.42217C26.5378 10.1599 26.6155 11.0821 26.8021 11.7584C26.9264 12.2041 27.0508 12.3886 27.2218 12.6498C27.3151 12.7882 27.3306 12.9726 27.4084 13.0648C27.7038 13.4337 28.4655 13.6796 28.9786 13.4952C29.3828 13.3415 29.7248 12.865 29.8491 12.4347C29.6937 12.6652 29.3828 12.9726 29.0096 12.8343C28.4966 12.6652 28.0613 10.7132 28.3567 9.92938C28.3567 9.92938 28.3722 9.94475 28.3878 9.89864C28.7298 8.56146 28.792 7.00911 29.2428 5.90248C29.305 5.21084 29.4605 4.3655 29.8802 3.9044C31.5126 3.56627 33.1294 3.41257 34.9483 3.25887C34.9328 3.2435 35.0883 3.12054 35.0727 2.98221ZM15.7331 12.2502C16.044 11.9121 16.4637 11.6508 16.868 11.4049C16.8369 11.866 16.2616 12.1119 15.7331 12.2502Z" fill="#DD0C2F"/>
<path d="M34.995 19.074C33.5181 16.8607 30.9374 15.4006 27.766 15.4006C23.9105 15.4006 20.9567 17.5677 19.7441 20.6109C19.371 21.5639 19.1533 22.609 19.1533 23.7003C19.1533 28.3266 22.6979 32 27.7504 32C32.8341 32 36.3787 28.3266 36.3787 23.7003C36.3787 21.9942 35.8967 20.3958 34.995 19.074ZM27.766 27.7733C25.4185 27.7733 23.8639 25.8521 23.8639 23.7003C23.8639 22.1172 24.75 20.6109 26.1803 19.9654C26.6467 19.7502 27.1752 19.6273 27.766 19.6273C28.0614 19.6273 28.3412 19.658 28.6055 19.7195C30.4866 20.1191 31.6526 21.8713 31.6526 23.7003C31.6681 25.8521 30.1446 27.7733 27.766 27.7733Z" fill="#DD0C2F"/>
<path d="M77.0329 23.7003C77.0329 22.9933 77.2039 22.3016 77.5459 21.7022C78.1989 20.5034 79.5048 19.6273 81.4014 19.6273C83.2825 19.6273 84.6506 20.196 85.5212 20.6417V16.4457C84.4019 15.877 82.9872 15.4006 80.935 15.4006C76.4421 15.4006 73.1463 18.3516 72.4623 22.2094C72.3845 22.7012 72.3379 23.1931 72.3379 23.7003C72.3379 28.3266 75.8825 32 80.7174 32C82.6607 32 84.5263 31.585 85.6456 31.0009V26.7435C84.6973 27.2046 83.2048 27.7579 81.1682 27.7579C78.4787 27.7733 77.0329 25.8521 77.0329 23.7003Z" fill="#DD0C2F"/>
<path d="M103.617 19.074C102.14 16.8607 99.5595 15.4006 96.3881 15.4006C92.5326 15.4006 89.5788 17.5677 88.3662 20.6109C87.993 21.5639 87.7754 22.609 87.7754 23.7003C87.7754 28.3266 91.32 32 96.3725 32C101.456 32 105.001 28.3266 105.001 23.7003C105.001 21.9942 104.503 20.3958 103.617 19.074ZM96.3725 27.7733C94.025 27.7733 92.4704 25.8521 92.4704 23.7003C92.4704 22.1172 93.3565 20.6109 94.7868 19.9654C95.2532 19.7502 95.7818 19.6273 96.3725 19.6273C96.6679 19.6273 96.9477 19.658 97.212 19.7195C99.0931 20.1191 100.259 21.8713 100.259 23.7003C100.275 25.8521 98.7511 27.7733 96.3725 27.7733Z" fill="#DD0C2F"/>
<path d="M8.22441 22.0557L0.186949 15.5081H0.078125V29.4947V31.6772H4.52438V29.049V24.3151L8.22441 27.2661L11.8933 24.3151V28.3112V31.6772H16.3707V27.8655V15.5081H16.2463L8.22441 22.0557Z" fill="#DD0C2F"/>
<path d="M48.7227 22.8857L39.4882 15.5081H39.2705V25.56V31.6772H43.8256V25.0989V24.5149L44.4785 25.0221L53.1068 31.8924H53.3089V24.146V15.7233H48.7227V22.8857Z" fill="#DD0C2F"/>
<path d="M63.7865 15.5081H63.5689L59.5113 23.5158L55.376 31.6772H60.242L61.2214 29.5716H66.134L67.1446 31.6772H71.9795L67.4399 22.7166L63.7865 15.5081ZM62.5117 26.5591C62.916 25.6215 63.5223 24.1614 63.6466 23.5927H63.6933C63.8332 24.1614 64.4395 25.6369 64.8282 26.5591H62.5117Z" fill="#DD0C2F"/>
<path d="M11.8936 31.6772H16.3709V27.8655L11.8936 28.3112V31.6772Z" fill="#9D1422"/>
<path d="M39.2705 31.6772H43.8256V25.099L39.2705 25.56V31.6772Z" fill="#9D1422"/>
<path d="M0.078125 31.6772H4.52438V29.049L0.078125 29.4947V31.6772Z" fill="#9D1422"/>
<path d="M53.1067 31.8924H53.3088V24.146L44.4785 25.0221L53.1067 31.8924Z" fill="#9D1422"/>
<path d="M55.3613 31.6772H60.2273L61.2068 29.5716H66.1194L67.1299 31.6772H71.9804L67.4408 22.7166L59.4967 23.5159L55.3613 31.6772ZM63.6475 23.5927H63.6942C63.8341 24.1614 64.4404 25.6369 64.8291 26.5591H62.4971C62.9169 25.6215 63.5232 24.1614 63.6475 23.5927Z" fill="#9D1422"/>
<path d="M72.3223 23.7003C72.3223 28.3266 75.8668 32 80.7017 32C82.645 32 84.5106 31.585 85.6299 31.001V26.7435C84.6816 27.2046 83.1892 27.7579 81.1526 27.7579C78.4942 27.7579 77.0328 25.8367 77.0328 23.6849C77.0328 22.9779 77.2038 22.2863 77.5458 21.6869L72.4622 22.1941C72.3689 22.7013 72.3223 23.1931 72.3223 23.7003Z" fill="#9D1422"/>
<path d="M100.275 23.7003C100.275 25.8521 98.751 27.7733 96.3724 27.7733C94.0249 27.7733 92.4703 25.8521 92.4703 23.7003C92.4703 22.1172 93.3565 20.611 94.7867 19.9654L88.3505 20.611C87.9774 21.5639 87.7598 22.609 87.7598 23.7003C87.7598 28.3266 91.3043 32 96.3569 32C101.441 32 104.985 28.3266 104.985 23.7003C104.985 21.9942 104.488 20.3958 103.601 19.074L97.2119 19.7195C99.1086 20.1191 100.275 21.8559 100.275 23.7003Z" fill="#9D1422"/>
<path d="M27.7666 32C32.0263 32 35.1977 29.4179 36.115 25.8674L30.7204 26.4054C30.0363 27.2354 29.0258 27.7733 27.7666 27.7733C26.8182 27.7733 25.9943 27.4659 25.3569 26.9433L20.04 27.4813C21.3926 30.171 24.1909 32 27.7666 32Z" fill="#9D1422"/>
</g>
<defs>
<clipPath id="clip0">
<rect width="105" height="32" fill="white"/>
</clipPath>
</defs>
</svg>

<svg width="105" height="32" fill="none" xmlns="http://www.w3.org/2000/svg"><g clip-path="url(#clip0)"><path fill-rule="evenodd" clip-rule="evenodd" d="M10.432 6.579c.109-.23.28-.415.248-.769-.373-.061-1.29-.476-1.305.2.342.215.482.63 1.057.569zm12.732-.707c.171-.185.264-.446.28-.769-.342-.092-1.415-.415-1.306.17.031.214.684.66 1.026.599zm11.909-2.89c-1.4-.369-3.436-.215-4.99-.276.124-.923.575-1.553.823-2.367-.28-.216-.59-.461-1.041-.308-.575.892-1.042 1.814-1.524 2.72-.404.062-.855.062-1.275.108-1.15.123-2.098.461-3.093.753-.156.046-.311.093-.498.062.529 1.153 2.488.937 3.964.66-.217.385-.124.754-.435 1.061-.109 1-.466 1.799-.606 2.613.124-.338.389-.722.575-.907-.124.323-.186.692-.264 1.06-.28.14-.467.37-.793.462-.73.645-1.617 1.076-2.44 1.645-.452.307-.934.568-1.509.599-.078-.354.187-.646.28-.968.031-.123 0-.277.047-.4.062-.17.186-.292.233-.43.17-.584.17-1.291.466-1.722-.28-.292-.808-.507-1.337-.323-.357.477-.497 1.138-.73 1.737-.918.523-2.037.876-3.203 1.184-.202-.615-1.275-.661-1.306-1.368-.015-.507.964-.953 1.321-1.245.296-.261.545-.338.483-.707-.545-.215-.902-.63-1.586-.6-.171.462-.747.554-.793 1.122-.078 0-.109-.061-.171.016-.295.522-.808.999-1.275 1.475-.497.154-.777.492-1.213.692-.746.645-1.616 1.06-2.44 1.598-.467.308-.949.615-1.54.646-.077-.338.218-.661.312-1.03.03-.107-.016-.23.015-.323.062-.169.187-.307.233-.476.11-.369.094-.815.233-1.184.047-.153.265-.292.234-.476-.047-.292-.964-.553-1.337-.354-.358.538-.56 1.215-.747 1.906-.715.461-2.083 1.03-3.016.569-.03-.292.032-.507-.015-.815-.264-.076-.498-.353-.777-.322-.234.03-.28.338-.545.353-.202.584-.575 1.015-.932 1.46-.078.308-.28.569-.451.815-.171.23-.342.538-.622.692.062-.63.155-1.322.249-2.03.14-1.09.497-2.35-.062-3.258C1.29 6.61.125 7.04 0 7.793c-.062.323.078.815.093 1.137.016.415.016.907.016 1.399 0 .676-.171 1.383-.124 1.937.03.43.217 1.214.404 1.414.109.123.808.43.98.43.201.015.403-.17.59-.061.622-.508.933-1.276 1.446-1.876.466-.26.715-.707 1.057-1.075.56.338 1.617.153 2.176.046.11-.031.265 0 .358-.016.45-.123.715-.446.964-.569-.047.539 0 1.046.31 1.353.296.307 1.105.569 1.649.553.528-.015.964-.307 1.399-.43a54.525 54.525 0 0 0 4.135-3.366c.264.676.778 1.06 1.213 1.568-.653.415-1.462.922-1.959 1.552-.155.2-.575.569-.513.876.062.246.84.63 1.166.646.326.03.715-.092 1.073-.261.668-.308 1.477-.846 1.74-1.4.11-.23.125-.553.125-.814.746-.446 1.85-.753 2.472-1.214-.109.569-.078 1.168.218 1.522.295.353 1.166.645 1.756.614.529-.03.933-.322 1.369-.43.093-.061.155-.169.248-.246.747-.569 1.586-1.107 2.208-1.66-.031.738.047 1.66.233 2.336.124.446.249.63.42.892.093.138.109.323.186.415.296.369 1.057.615 1.57.43.405-.153.747-.63.871-1.06-.155.23-.466.538-.84.4-.512-.17-.948-2.122-.652-2.906 0 0 .015.016.03-.03.343-1.338.405-2.89.856-3.997.062-.691.218-1.537.637-1.998 1.633-.338 3.25-.491 5.068-.645-.015-.015.14-.138.125-.277zm-19.34 9.268c.311-.338.73-.6 1.135-.845-.031.461-.606.707-1.135.845z" fill="#DD0C2F"/><path d="M34.995 19.074c-1.477-2.213-4.058-3.673-7.229-3.673-3.855 0-6.81 2.167-8.022 5.21a8.475 8.475 0 0 0-.59 3.09c0 4.626 3.544 8.299 8.596 8.299 5.084 0 8.629-3.673 8.629-8.3 0-1.706-.482-3.304-1.384-4.626zm-7.229 8.7c-2.347 0-3.902-1.922-3.902-4.074 0-1.583.886-3.09 2.316-3.735a3.746 3.746 0 0 1 1.586-.338c.295 0 .575.031.84.093 1.88.4 3.047 2.151 3.047 3.98.015 2.152-1.508 4.073-3.887 4.073zM77.033 23.7c0-.707.17-1.398.513-1.998.653-1.199 1.959-2.075 3.855-2.075 1.882 0 3.25.569 4.12 1.015v-4.196c-1.12-.569-2.534-1.045-4.586-1.045-4.493 0-7.789 2.95-8.473 6.808a9.481 9.481 0 0 0-.124 1.491c0 4.627 3.544 8.3 8.38 8.3 1.943 0 3.808-.415 4.928-1v-4.256c-.949.46-2.441 1.014-4.478 1.014-2.69.015-4.135-1.906-4.135-4.058zM103.617 19.074c-1.477-2.213-4.058-3.673-7.229-3.673-3.855 0-6.81 2.167-8.022 5.21a8.473 8.473 0 0 0-.59 3.09c0 4.626 3.544 8.299 8.597 8.299 5.083 0 8.628-3.673 8.628-8.3a8.283 8.283 0 0 0-1.384-4.626zm-7.245 8.7c-2.347 0-3.902-1.922-3.902-4.074 0-1.583.886-3.09 2.317-3.735a3.747 3.747 0 0 1 1.585-.338c.296 0 .576.031.84.093 1.881.4 3.047 2.151 3.047 3.98.016 2.152-1.508 4.073-3.886 4.073zM8.224 22.056L.187 15.508H.078v16.169h4.446v-7.362l3.7 2.951 3.67-2.95V31.676h4.477V15.508h-.125l-8.022 6.548zM48.723 22.886l-9.235-7.378h-.218v16.169h4.556v-7.162l.652.507 8.629 6.87h.202V15.723h-4.586v7.163zM63.786 15.508h-.217l-4.058 8.008-4.135 8.161h4.866l.98-2.105h4.912l1.01 2.105h4.835l-4.54-8.96-3.652-7.209zM62.512 26.56c.404-.938 1.01-2.398 1.135-2.966h.046c.14.568.746 2.044 1.135 2.966h-2.316z" fill="#DD0C2F"/><path d="M11.894 31.677h4.477v-3.811l-4.477.445v3.366zM39.27 31.677h4.556V25.1l-4.556.461v6.117zM.078 31.677h4.446V29.05l-4.446.446v2.182zM53.107 31.892h.202v-7.746l-8.83.876 8.628 6.87zM55.361 31.677h4.866l.98-2.105h4.912l1.01 2.105h4.851l-4.54-8.96-7.943.799-4.136 8.161zm8.287-8.084h.046c.14.568.746 2.044 1.135 2.966h-2.332c.42-.938 1.026-2.398 1.15-2.966zM72.322 23.7c0 4.627 3.545 8.3 8.38 8.3 1.943 0 3.809-.415 4.928-.999v-4.258c-.948.462-2.44 1.015-4.477 1.015-2.659 0-4.12-1.921-4.12-4.073 0-.707.17-1.399.513-1.998l-5.084.507c-.093.507-.14 1-.14 1.506zM100.275 23.7c0 2.152-1.524 4.073-3.903 4.073-2.347 0-3.902-1.92-3.902-4.073 0-1.583.886-3.089 2.317-3.735l-6.437.646a8.474 8.474 0 0 0-.59 3.09c0 4.626 3.544 8.299 8.597 8.299 5.084 0 8.628-3.673 8.628-8.3a8.275 8.275 0 0 0-1.384-4.626l-6.39.645c1.898.4 3.064 2.137 3.064 3.981zM27.767 32c4.26 0 7.43-2.582 8.348-6.133l-5.395.538c-.684.83-1.694 1.368-2.953 1.368-.949 0-1.773-.307-2.41-.83l-5.317.538C21.393 30.171 24.19 32 27.767 32z" fill="#9D1422"/></g><defs><clipPath id="clip0"><path fill="#fff" d="M0 0h105v32H0z"/></clipPath></defs></svg>
